_includes/icons/color-musical-notes.svg

<svg fill="#666" height="50" viewBox="0 0 48 48" width="50" xmlns="http://www.w3.org/2000/svg"><g fill="#f44336"><path d="m16 13v24h3v-15.417969l17-5.582031v17h3v-27z"/><path d="m19 37c0 3.3125-2.6875 6-6 6s-6-2.6875-6-6 2.6875-6 6-6 6 2.6875 6 6z"/><path d="m39 33c0 3.3125-2.6875 6-6 6s-6-2.6875-6-6 2.6875-6 6-6 6 2.6875 6 6z"/></g></svg>

<svg xmlns="http://www.w3.org/2000/svg" viewBox="0 0 48 48" width="50" height="50" fill="#666"><g fill="#f44336"><path d="M 16 13 C 16 13 16 36.988281 16 37 L 19 37 L 19 21.582031 L 36 16 L 36 33 L 39 33 L 39 6 Z"/><path d="M 19 37 C 19 40.3125 16.3125 43 13 43 C 9.6875 43 7 40.3125 7 37 C 7 33.6875 9.6875 31 13 31 C 16.3125 31 19 33.6875 19 37 Z"/><path d="M 39 33 C 39 36.3125 36.3125 39 33 39 C 29.6875 39 27 36.3125 27 33 C 27 29.6875 29.6875 27 33 27 C 36.3125 27 39 29.6875 39 33 Z"/></g></svg>
